lib/oojs-ui/images/indicators/alert.svg

<?xml version="1.0" encoding="UTF-8"?>
<svg xmlns="http://www.w3.org/2000/svg" width="12" height="12" viewBox="0 0 12 12">
    <g id="deprecated" opacity=".75">
        <path d="M6 12c-3.314 0-6-2.686-6-6s2.686-6 6-6 6 2.686 6 6-2.686 6-6 6zm-1-5h2v-5h-2zm0 3h2v-2h-2z"/>
    </g>
</svg>

<?xml version="1.0" encoding="UTF-8"?>
<!DOCTYPE svg PUBLIC "-//W3C//DTD SVG 1.1//EN" "http://www.w3.org/Graphics/SVG/1.1/DTD/svg11.dtd">
<svg version="1.1" xmlns="http://www.w3.org/2000/svg" xmlns:xlink="http://www.w3.org/1999/xlink" x="0px" y="0px" width="12px"
	 height="12px" viewBox="0 0 12 12">
  <g id="deprecated" opacity="0.75">
    <path d="M6,12 C2.686,12 -0,9.314 -0,6 C-0,2.686 2.686,-0 6,-0 C9.314,-0 12,2.686 12,6 C12,9.314 9.314,12 6,12 z M5,7 L7,7 L7,2 L5,2 z M5,10 L7,10 L7,8 L5,8 z"/>
  </g>
  <defs/>
</svg>
